X: 567
T: Gavells-Ella efter Sigvard Stolt
S: efter Sigvard Stolt
R: Hambo?
O: Hälsingland
Z: Håkan Lidén, 2008-09-28
M: 3/4
L: 1/8
K: G
D2 GA BG | E2 AB cA | FA de d2 | FA de d2 | D2 GA BG | E2 AB cA | 
FA de dA | G2 G2 z2 ::[K:C] e2 ed cA | G2 EF Gc | B2 DG AB | c2 E>F G2 |
e2 ed cA | G2 EF Gc | B2 DG Bd | c2 c2 z2 :: c2 cB Ac | B2 B^G E2 |
c2 cB Ac | e2 e3 d | c2 cB A2 | G2 GF E2 | DE FG AB | c2 c2 z2 :|]
(:musicend:)

(:music:)
